Catalina-light/apps/scalable/Nextcloud_ok.svg

<svg enable-background="new 0 0 128 128" version="1.1" viewBox="0 0 128 128" xml:space="preserve" xmlns="http://www.w3.org/2000/svg"><g transform="matrix(.96875 0 0 .96875 2 2)"><path d="m64 2.1c34.2 0 61.9 27.7 61.9 61.9s-27.7 61.9-61.9 61.9-61.9-27.7-61.9-61.9 27.7-61.9 61.9-61.9z" fill="#5eb220"/><path d="m64 128c-35.3 0-64-28.7-64-64s28.7-64 64-64 64 28.7 64 64-28.7 64-64 64zm0-123.9c-33 0-59.9 26.9-59.9 59.9s26.9 59.9 59.9 59.9 59.9-26.9 59.9-59.9-26.9-59.9-59.9-59.9z" fill="#3a9804"/><polygon points="35.9 63.8 53 77.3 87.1 31 100.3 40.7 61.3 93.9 56.2 100.7 25.7 76.8" fill="#fff"/><path d="m87.3 32.4 11.6 8.6-4.3 5.8-34.2 46.4-4.4 6-5.8-4.6-17.4-13.5-5.7-4.4 8.9-11.4 5.7 4.4 11.5 9 29.8-40.5 4.3-5.8m-0.5-2.9-1.2 1.7-4.3 5.8-28.5 38.8-9.8-7.7-5.7-4.4-1.6-1.3-1.3 1.6-8.9 11.4-1.2 1.6 1.6 1.3 5.7 4.4 17.4 13.6 5.8 4.6 1.7 1.3 1.3-1.7 38.5-52.5 4.3-5.8 1.2-1.7-1.7-1.2-11.6-8.5-1.7-1.3z" fill="#3a9804"/></g></svg>

<?xml version="1.0" encoding="UTF-8" standalone="no"?>
<svg
   xmlns:dc="http://purl.org/dc/elements/1.1/"
   xmlns:cc="http://creativecommons.org/ns#"
   xmlns:rdf="http://www.w3.org/1999/02/22-rdf-syntax-ns#"
   xmlns:svg="http://www.w3.org/2000/svg"
   xmlns="http://www.w3.org/2000/svg"
   xml:space="preserve"
   enable-background="new 0 0 128 128"
   viewBox="0 0 128 128"
   y="0px"
   x="0px"
   id="Sync"
   version="1.1"><metadata
     id="metadata25"><rdf:RDF><cc:Work
         rdf:about=""><dc:format>image/svg+xml</dc:format><dc:type
           rdf:resource="http://purl.org/dc/dcmitype/StillImage" /><dc:title></dc:title></cc:Work></rdf:RDF></metadata><defs
     id="defs23" /><g
     transform="matrix(0.96875,0,0,0.96875,2,2)"
     id="g3"><g
       id="g5"><path
         style="fill:#5eb220"
         id="path7"
         d="m 64,2.1 c 34.2,0 61.9,27.7 61.9,61.9 0,34.2 -27.7,61.9 -61.9,61.9 C 29.8,125.9 2.1,98.2 2.1,64 2.1,29.8 29.8,2.1 64,2.1 Z" /><path
         style="fill:#3a9804"
         id="path9"
         d="M 64,128 C 28.7,128 0,99.3 0,64 0,28.7 28.7,0 64,0 c 35.3,0 64,28.7 64,64 0,35.3 -28.7,64 -64,64 z M 64,4.1 C 31,4.1 4.1,31 4.1,64 4.1,97 31,123.9 64,123.9 97,123.9 123.9,97 123.9,64 123.9,31 97,4.1 64,4.1 Z" /></g><g
       id="g11"><g
         id="g13"><polygon
           style="fill:#ffffff"
           id="polygon15"
           points="35.9,63.8 53,77.3 87.1,31 100.3,40.7 61.3,93.9 56.2,100.7 25.7,76.8 " /></g><g
         id="g17"><path
           style="fill:#3a9804"
           id="path19"
           d="M 87.3,32.4 98.9,41 94.6,46.8 60.4,93.2 56,99.2 50.2,94.6 32.8,81.1 27.1,76.7 36,65.3 l 5.7,4.4 11.5,9 L 83,38.2 87.3,32.4 M 86.8,29.5 85.6,31.2 81.3,37 52.8,75.8 43,68.1 37.3,63.7 35.7,62.4 34.4,64 25.5,75.4 24.3,77 l 1.6,1.3 5.7,4.4 17.4,13.6 5.8,4.6 1.7,1.3 1.3,-1.7 4.4,-6 34.1,-46.5 4.3,-5.8 1.2,-1.7 -1.7,-1.2 -11.6,-8.5 -1.7,-1.3 0,0 z" /></g></g></g></svg>
